X: 19907
T: Jig For Tom King
R: jig
M: 6/8
K: Dmajor
DFA dcd|edc d2A|~G3 BGd|~A3 cAe|
DFA dcd|edc d2A|~G3 BGd|1 Adc dAF:|2 Adc d2e||
|:f2d def|e2c cde|d2B Bed|cAA AGF|
~G3 dcd|~F3 dcd|~E3 e2d|1 cBc d2e:|2 cBc dAF||

